assets/icons/qvision/5g.svg

<svg xmlns="http://www.w3.org/2000/svg" enable-background="new 0 0 24 24" height="24" viewBox="0 0 24 24" width="24"><g><rect fill="none" height="24" width="24"/></g><g><g><path d="M17,13h2v2h-5V9h7c0-1.1-0.9-2-2-2h-5c-1.1,0-2,0.9-2,2v6c0,1.1,0.9,2,2,2h5c1.1,0,2-0.9,2-2v-4h-4V13z"/><path d="M3,13h5v2H3v2h5c1.1,0,2-0.9,2-2v-2c0-1.1-0.9-2-2-2H5V9h5V7H3V13z"/></g></g></svg>

<svg width="24" height="24" viewBox="0 0 24 24" fill="none" xmlns="http://www.w3.org/2000/svg">
<g clip-path="url(#clip0_147_1334)">
<path d="M17 13H19V15H14V9H21C21 7.9 20.1 7 19 7H14C12.9 7 12 7.9 12 9V15C12 16.1 12.9 17 14 17H19C20.1 17 21 16.1 21 15V11H17V13Z" fill="#323232"/>
<path d="M3 13H8V15H3V17H8C9.1 17 10 16.1 10 15V13C10 11.9 9.1 11 8 11H5V9H10V7H3V13Z" fill="#323232"/>
</g>
<defs>
<clipPath id="clip0_147_1334">
<rect width="24" height="24" fill="white"/>
</clipPath>
</defs>
</svg>
